X:1
T:Railroad Engineer's Child
M:4/4
L:1/4
K:C
 z2 zE/2-F/2| G G E D/2C/2| A c G G| A A C D| E3E/2-F/2| G G E D/2C/2|\
 A c G G/2A/2| B D A D| G3 G| FG/2-A/2 B A/2F/2| E F G G/2G/2| FG/2-A/2 BA/2-F/2|\
 E2 z E/2F/2| G G E C| A A c B/2A/2| G E DE/2-D/2| C4| G A/2G/2 c G/2G/2|\
 A F c3/2 A/2| G E c/2G/2 F/2E/2| D3 E/2F/2| G E c G| A F c B/2A/2|\
 G/2E/2 E DE/2-D/2| C3 z|
